src/assets/img/FlairrVault-logo.svg

<?xml version="1.0" encoding="UTF-8"?>
<svg width="77" height="21" fill="none" version="1.1" viewBox="0 0 77 21" xmlns="http://www.w3.org/2000/svg" xmlns:cc="http://creativecommons.org/ns#" xmlns:dc="http://purl.org/dc/elements/1.1/" xmlns:rdf="http://www.w3.org/1999/02/22-rdf-syntax-ns#">
 <metadata>
  <rdf:RDF>
   <cc:Work rdf:about="">
    <dc:format>image/svg+xml</dc:format>
    <dc:type rdf:resource="http://purl.org/dc/dcmitype/StillImage"/>
    <dc:title/>
   </cc:Work>
  </rdf:RDF>
 </metadata>
 <g clip-path="url(#clip0)">
  <path d="m27.695 8.2324h-3.5801v3.7676h-1.125v-8.5312h5.2852v0.92578h-4.1602v2.918h3.5801v0.91992zm2.9356 3.7676h-1.084v-9h1.084v9zm5.6543 0c-0.0625-0.125-0.1133-0.3477-0.1524-0.668-0.5039 0.5235-1.1055 0.7852-1.8047 0.7852-0.625 0-1.1386-0.1758-1.541-0.5274-0.3984-0.3554-0.5976-0.8046-0.5976-1.3476 0-0.66017 0.25-1.1719 0.75-1.5352 0.5039-0.36719 1.2109-0.55078 2.121-0.55078h1.0547v-0.49805c0-0.3789-0.1132-0.67968-0.3398-0.90234-0.2266-0.22656-0.5606-0.33984-1.002-0.33984-0.3867 0-0.7109 0.09765-0.9726 0.29296-0.2617 0.19532-0.3926 0.43164-0.3926 0.70899h-1.0898c0-0.31641 0.1113-0.62109 0.3339-0.91406 0.2266-0.29688 0.5313-0.53125 0.9141-0.70313 0.3867-0.17187 0.8106-0.25781 1.2715-0.25781 0.7305 0 1.3027 0.18359 1.7168 0.55078 0.4141 0.36328 0.6289 0.86523 0.6445 1.5059v2.918c0 0.582 0.0742 1.0449 0.2227 1.3886v0.0938h-1.1367zm-1.7989-0.8262c0.3399 0 0.6621-0.0879 0.9668-0.2636 0.3047-0.1758 0.5254-0.4043 0.6621-0.6856v-1.3008h-0.8496c-1.3281 0-1.9922 0.38867-1.9922 1.166 0 0.3399 0.1133 0.6055 0.3399 0.7969 0.2265 0.1914 0.5176 0.2871 0.873 0.2871zm5.5899 0.8262h-1.084v-6.3398h1.084v6.3398zm-1.1719-8.0215c0-0.17579 0.0527-0.32422 0.1582-0.44532 0.1094-0.12109 0.2695-0.18164 0.4805-0.18164 0.2109 0 0.3711 0.06055 0.4804 0.18164 0.1094 0.1211 0.1641 0.26953 0.1641 0.44532 0 0.17578-0.0547 0.32226-0.1641 0.43945-0.1093 0.11719-0.2695 0.17578-0.4804 0.17578-0.211 0-0.3711-0.05859-0.4805-0.17578-0.1055-0.11719-0.1582-0.26367-0.1582-0.43945zm5.9766 2.6543c-0.1641-0.02734-0.3418-0.04101-0.5332-0.04101-0.711 0-1.1934 0.30273-1.4473 0.9082v4.5h-1.084v-6.3398h1.0547l0.0176 0.73242c0.3554-0.56641 0.8593-0.84961 1.5117-0.84961 0.2109 0 0.3711 0.02734 0.4805 0.08203v1.0078zm4.0664 0c-0.1641-0.02734-0.3418-0.04101-0.5332-0.04101-0.711 0-1.1934 0.30273-1.4473 0.9082v4.5h-1.084v-6.3398h1.0547l0.0176 0.73242c0.3554-0.56641 0.8594-0.84961 1.5117-0.84961 0.2109 0 0.3711 0.02734 0.4805 0.08203v1.0078zm3.9961 3.8731 2.4375-7.0372h1.2304l-3.164 8.5312h-0.9961l-3.1582-8.5312h1.2246l2.4258 7.0372zm8.291 1.4941c-0.0625-0.125-0.1133-0.3477-0.1524-0.668-0.5039 0.5235-1.1054 0.7852-1.8047 0.7852-0.625 0-1.1386-0.1758-1.541-0.5274-0.3984-0.3554-0.5976-0.8046-0.5976-1.3476 0-0.66017 0.25-1.1719 0.75-1.5352 0.5039-0.36719 1.2109-0.55078 2.1211-0.55078h1.0547v-0.49805c0-0.3789-0.1133-0.67968-0.3399-0.90234-0.2266-0.22656-0.5605-0.33984-1.0019-0.33984-0.3868 0-0.711 0.09765-0.9727 0.29296-0.2617 0.19532-0.3926 0.43164-0.3926 0.70899h-1.0898c0-0.31641 0.1113-0.62109 0.334-0.91406 0.2265-0.29688 0.5312-0.53125 0.914-0.70313 0.3867-0.17187 0.8106-0.25781 1.2715-0.25781 0.7305 0 1.3027 0.18359 1.7168 0.55078 0.4141 0.36328 0.6289 0.86523 0.6445 1.5059v2.918c0 0.582 0.0743 1.0449 0.2227 1.3886v0.0938h-1.1367zm-1.7989-0.8262c0.3399 0 0.6622-0.0879 0.9668-0.2636 0.3047-0.1758 0.5254-0.4043 0.6622-0.6856v-1.3008h-0.8497c-1.3281 0-1.9921 0.38867-1.9921 1.166 0 0.3399 0.1132 0.6055 0.3398 0.7969s0.5176 0.2871 0.873 0.2871zm8.3262 0.1992c-0.4219 0.4961-1.041 0.7442-1.8574 0.7442-0.6758 0-1.1914-0.1953-1.5469-0.586-0.3515-0.3945-0.5293-0.9765-0.5332-1.746v-4.125h1.084v4.0957c0 0.96094 0.3906 1.4414 1.1719 1.4414 0.8281 0 1.3789-0.3086 1.6523-0.9258v-4.6113h1.084v6.3398h-1.0312l-0.0235-0.627zm3.8848 0.627h-1.084v-9h1.084v9zm3.2109-7.875v1.5352h1.1836v0.83789h-1.1836v3.9316c0 0.2539 0.0528 0.4453 0.1582 0.5742 0.1055 0.125 0.2852 0.1875 0.5391 0.1875 0.125 0 0.2969-0.0234 0.5156-0.0703v0.8789c-0.2851 0.0781-0.5625 0.1172-0.832 0.1172-0.4844 0-0.8496-0.1465-1.0957-0.4395-0.2461-0.2929-0.3692-0.7089-0.3692-1.248v-3.9316h-1.1543v-0.83789h1.1543v-1.5352h1.084z" fill="#000"/>
  <circle cx="8" cy="8" r="8" fill="#fff"/>
  <path d="m8 16c4.4183 0 8-3.5817 8-8 0-4.4183-3.5817-8-8-8-4.4183 0-8 3.5817-8 8 0 4.4183 3.5817 8 8 8zm0.26933-7.0823 0.01087 4.6995c3.2e-4 0.1383-0.1117 0.2506-0.25 0.2506h-0.75679c-0.13755 0-0.24926-0.1111-0.25-0.2487l-0.02538-4.6938v-0.03801h-0.07254l-0.85971-0.00886c-0.13706-0.00141-0.24742-0.11292-0.24742-0.24999v-0.52736c0-0.13874 0.11297-0.25095 0.25171-0.25l0.85924 0.00588h0.07254l0.01145-0.43342-0.94574-0.00301c-0.13776-4.3e-4 -0.2492-0.11223-0.2492-0.24999v-0.51751c0-0.13745 0.11095-0.24911 0.2484-0.24999l0.93891-0.00602s0-1.1862 0.0649-2.4332c0.06235-1.2236 1.0056-2.0682 2.877-1.6911 0.13123 0.02645 0.21363 0.15604 0.18723 0.28734l-0.1327 0.66101c-0.02862 0.14242-0.17237 0.23219-0.3159 0.2098-0.42774-0.06671-1.2372-0.09738-1.3405 0.5976-0.07254 0.47144-0.06872 1.3687-0.05345 2.3534l1.3014-0.01273c0.13902-0.00136 0.25245 0.11096 0.25245 0.24999v0.53352c0 0.13734-0.1108 0.24897-0.24813 0.24999l-1.279 0.00956-0.00764 0.45243h1.301c0.13769 0 0.24947 0.11134 0.24999 0.24904l0.00191 0.49854c5.3e-4 0.13749-0.11007 0.24961-0.24755 0.25095l-1.3091 0.01278h-0.03436v0.04182h-0.00381zm6.6037-0.91772c0 3.7958-3.077 6.8728-6.8727 6.8728-3.7957 0-6.8727-3.077-6.8727-6.8728 0-3.7957 3.077-6.8727 6.8727-6.8727 3.7957 0 6.8727 3.077 6.8727 6.8727zm0.4 0c0 4.0166-3.2561 7.2728-7.2727 7.2728-4.0166 0-7.2727-3.2561-7.2727-7.2728 0-4.0166 3.2561-7.2727 7.2727-7.2727 4.0166 0 7.2727 3.2561 7.2727 7.2727z" clip-rule="evenodd" fill="url(#paint0_linear)" fill-rule="evenodd"/>
 </g>
 <defs>
  <linearGradient id="paint0_linear" x1="8" x2="8" y2="16" gradientUnits="userSpaceOnUse">
   <stop stop-color="#F46868" offset="0"/>
   <stop stop-color="#D94646" offset="1"/>
  </linearGradient>
  <clipPath id="clip0">
   <rect width="77" height="21" fill="#fff"/>
  </clipPath>
 </defs>
</svg>

<svg width="77" height="21" viewBox="0 0 77 21" fill="none" xmlns="http://www.w3.org/2000/svg">
<g clip-path="url(#clip0)">
<path d="M27.6953 8.23242H24.1152V12H22.9902V3.46875H28.2754V4.39453H24.1152V7.3125H27.6953V8.23242ZM30.6309 12H29.5469V3H30.6309V12ZM36.2852 12C36.2227 11.875 36.1719 11.6523 36.1328 11.332C35.6289 11.8555 35.0273 12.1172 34.3281 12.1172C33.7031 12.1172 33.1895 11.9414 32.7871 11.5898C32.3887 11.2344 32.1895 10.7852 32.1895 10.2422C32.1895 9.58203 32.4395 9.07031 32.9395 8.70703C33.4434 8.33984 34.1504 8.15625 35.0605 8.15625H36.1152V7.6582C36.1152 7.2793 36.002 6.97852 35.7754 6.75586C35.5488 6.5293 35.2148 6.41602 34.7734 6.41602C34.3867 6.41602 34.0625 6.51367 33.8008 6.70898C33.5391 6.9043 33.4082 7.14062 33.4082 7.41797H32.3184C32.3184 7.10156 32.4297 6.79688 32.6523 6.50391C32.8789 6.20703 33.1836 5.97266 33.5664 5.80078C33.9531 5.62891 34.377 5.54297 34.8379 5.54297C35.5684 5.54297 36.1406 5.72656 36.5547 6.09375C36.9688 6.45703 37.1836 6.95898 37.1992 7.59961V10.5176C37.1992 11.0996 37.2734 11.5625 37.4219 11.9062V12H36.2852ZM34.4863 11.1738C34.8262 11.1738 35.1484 11.0859 35.4531 10.9102C35.7578 10.7344 35.9785 10.5059 36.1152 10.2246V8.92383H35.2656C33.9375 8.92383 33.2734 9.3125 33.2734 10.0898C33.2734 10.4297 33.3867 10.6953 33.6133 10.8867C33.8398 11.0781 34.1309 11.1738 34.4863 11.1738ZM40.0762 12H38.9922V5.66016H40.0762V12ZM38.9043 3.97852C38.9043 3.80273 38.957 3.6543 39.0625 3.5332C39.1719 3.41211 39.332 3.35156 39.543 3.35156C39.7539 3.35156 39.9141 3.41211 40.0234 3.5332C40.1328 3.6543 40.1875 3.80273 40.1875 3.97852C40.1875 4.1543 40.1328 4.30078 40.0234 4.41797C39.9141 4.53516 39.7539 4.59375 39.543 4.59375C39.332 4.59375 39.1719 4.53516 39.0625 4.41797C38.957 4.30078 38.9043 4.1543 38.9043 3.97852ZM44.8809 6.63281C44.7168 6.60547 44.5391 6.5918 44.3477 6.5918C43.6367 6.5918 43.1543 6.89453 42.9004 7.5V12H41.8164V5.66016H42.8711L42.8887 6.39258C43.2441 5.82617 43.748 5.54297 44.4004 5.54297C44.6113 5.54297 44.7715 5.57031 44.8809 5.625V6.63281ZM48.9473 6.63281C48.7832 6.60547 48.6055 6.5918 48.4141 6.5918C47.7031 6.5918 47.2207 6.89453 46.9668 7.5V12H45.8828V5.66016H46.9375L46.9551 6.39258C47.3105 5.82617 47.8145 5.54297 48.4668 5.54297C48.6777 5.54297 48.8379 5.57031 48.9473 5.625V6.63281ZM52.9434 10.5059L55.3809 3.46875H56.6113L53.4473 12H52.4512L49.293 3.46875H50.5176L52.9434 10.5059ZM61.2344 12C61.1719 11.875 61.1211 11.6523 61.082 11.332C60.5781 11.8555 59.9766 12.1172 59.2773 12.1172C58.6523 12.1172 58.1387 11.9414 57.7363 11.5898C57.3379 11.2344 57.1387 10.7852 57.1387 10.2422C57.1387 9.58203 57.3887 9.07031 57.8887 8.70703C58.3926 8.33984 59.0996 8.15625 60.0098 8.15625H61.0645V7.6582C61.0645 7.2793 60.9512 6.97852 60.7246 6.75586C60.498 6.5293 60.1641 6.41602 59.7227 6.41602C59.3359 6.41602 59.0117 6.51367 58.75 6.70898C58.4883 6.9043 58.3574 7.14062 58.3574 7.41797H57.2676C57.2676 7.10156 57.3789 6.79688 57.6016 6.50391C57.8281 6.20703 58.1328 5.97266 58.5156 5.80078C58.9023 5.62891 59.3262 5.54297 59.7871 5.54297C60.5176 5.54297 61.0898 5.72656 61.5039 6.09375C61.918 6.45703 62.1328 6.95898 62.1484 7.59961V10.5176C62.1484 11.0996 62.2227 11.5625 62.3711 11.9062V12H61.2344ZM59.4355 11.1738C59.7754 11.1738 60.0977 11.0859 60.4023 10.9102C60.707 10.7344 60.9277 10.5059 61.0645 10.2246V8.92383H60.2148C58.8867 8.92383 58.2227 9.3125 58.2227 10.0898C58.2227 10.4297 58.3359 10.6953 58.5625 10.8867C58.7891 11.0781 59.0801 11.1738 59.4355 11.1738ZM67.7617 11.373C67.3398 11.8691 66.7207 12.1172 65.9043 12.1172C65.2285 12.1172 64.7129 11.9219 64.3574 11.5312C64.0059 11.1367 63.8281 10.5547 63.8242 9.78516V5.66016H64.9082V9.75586C64.9082 10.7168 65.2988 11.1973 66.0801 11.1973C66.9082 11.1973 67.459 10.8887 67.7324 10.2715V5.66016H68.8164V12H67.7852L67.7617 11.373ZM71.6465 12H70.5625V3H71.6465V12ZM74.8574 4.125V5.66016H76.041V6.49805H74.8574V10.4297C74.8574 10.6836 74.9102 10.875 75.0156 11.0039C75.1211 11.1289 75.3008 11.1914 75.5547 11.1914C75.6797 11.1914 75.8516 11.168 76.0703 11.1211V12C75.7852 12.0781 75.5078 12.1172 75.2383 12.1172C74.7539 12.1172 74.3887 11.9707 74.1426 11.6777C73.8965 11.3848 73.7734 10.9688 73.7734 10.4297V6.49805H72.6191V5.66016H73.7734V4.125H74.8574Z" fill="#F46868"/>
<circle cx="8" cy="8" r="8" fill="white"/>
<path fill-rule="evenodd" clip-rule="evenodd" d="M8 16C12.4183 16 16 12.4183 16 8C16 3.58172 12.4183 0 8 0C3.58172 0 0 3.58172 0 8C0 12.4183 3.58172 16 8 16ZM8.26933 8.91767L8.2802 13.6172C8.28052 13.7555 8.1685 13.8678 8.0302 13.8678H7.27341C7.13586 13.8678 7.02415 13.7567 7.02341 13.6191L6.99803 8.92527V8.88726H6.92549L6.06578 8.8784C5.92872 8.87699 5.81836 8.76548 5.81836 8.62841V8.10105C5.81836 7.96231 5.93133 7.8501 6.07007 7.85105L6.92931 7.85693H7.00185L7.0133 7.42351L6.06756 7.4205C5.9298 7.42007 5.81836 7.30827 5.81836 7.17051V6.653C5.81836 6.51555 5.92931 6.40389 6.06676 6.40301L7.00567 6.39699C7.00567 6.39699 7.00567 5.21079 7.07057 3.96376C7.13292 2.74018 8.07612 1.89557 9.94757 2.27264C10.0788 2.29909 10.1612 2.42868 10.1348 2.55998L10.0021 3.22099C9.97348 3.36341 9.82973 3.45318 9.6862 3.43079C9.25846 3.36408 8.44896 3.33341 8.34568 4.02839C8.27314 4.49983 8.27696 5.39709 8.29223 6.38178L9.59359 6.36905C9.73261 6.36769 9.84604 6.48001 9.84604 6.61904V7.15256C9.84604 7.2899 9.73524 7.40153 9.59791 7.40255L8.31896 7.41211L8.31132 7.86454H9.61227C9.74996 7.86454 9.86174 7.97588 9.86226 8.11358L9.86417 8.61212C9.8647 8.74961 9.7541 8.86173 9.61662 8.86307L8.3075 8.87585H8.27314V8.91767H8.26933ZM14.873 7.99995C14.873 11.7957 11.796 14.8727 8.00027 14.8727C4.20456 14.8727 1.12754 11.7957 1.12754 7.99995C1.12754 4.20425 4.20456 1.12722 8.00027 1.12722C11.796 1.12722 14.873 4.20425 14.873 7.99995ZM15.273 7.99995C15.273 12.0166 12.0169 15.2727 8.00027 15.2727C3.98365 15.2727 0.727539 12.0166 0.727539 7.99995C0.727539 3.98333 3.98365 0.727221 8.00027 0.727221C12.0169 0.727221 15.273 3.98333 15.273 7.99995Z" fill="url(#paint0_linear)"/>
</g>
<defs>
<linearGradient id="paint0_linear" x1="8" y1="0" x2="8" y2="16" gradientUnits="userSpaceOnUse">
<stop stop-color="#F46868"/>
<stop offset="1" stop-color="#D94646"/>
</linearGradient>
<clipPath id="clip0">
<rect width="77" height="21" fill="white"/>
</clipPath>
</defs>
</svg>
